X:1
T:Valse à 5 temps
C:d'après un air de "Roulez Fillettes", fichier abc : Bernard Loffet
L:1/8
Q:400
K:C
M:5/4
 z4 [e2A,2] [f2A,,2] [e2A,2] | [d2G,,2] G,2 [e2G,2] [e2G,,2] [G2G,2] | [A2A,,2] A,2 [e2A,2] [f2A,,2] [e2A,2] | \
 [d2G,,2] G,2 [e2G,2] [e2G,,2] [G2G,2] | [A2A,,2] A,2 [e2A,2] [f2A,,2] [g2E,2] | [a2F,,2] F,2 [e2F,2] [f2F,,2] [e2F,2] | \
 [d2D,,2] D,2 [c2D,2] [B2D,,2] [c2D,2] | [d2G,,2] G,2 [e2G,2] [e2G,,2] [G2G,2] | [A2A,,2] A,2 [c2A,2] [B2A,,2] [c2A,2] | \
 [d2G,,2] G,2 [e2G,2] [A2G,,2] [G2G,2] | [A2A,,2] A,2 A,2 A,,2 A,2 | A,,2 A,8 | \
W:Created with TablEdit http://www.tabledit.com/ by Bernard Loffet
